X:9847
%7553
T:Inauguration Reel or The Clinton Canter
% Nottingham Music Database
S:Dennis Salter Jan 1993, via PR
M:4/4
L:1/4
K:Cmaj
E/2F/2|"C"AG/2G/2 GE/2F/2|A/2G/2G/2G/2 Gz|GE/2F/2 G/2c/2B/2A/2|"G7"B3D/2E/2|
"Dm"FB,/2C/2 "G7"DD/2E/2|"Dm"F/2E/2D/2E/2 "G7"Fz|"Dm"FB,/2C/2 "G7"DB|\
"Dm"AG "G7"AG|
"C"AG/2G/2 GE/2F/2|A/2G/2G/2G/2 Gz|"C"GE/2F
